X:1
T:Prince Alberts -- Hornpipe
Z:Bob Puckette <bpuckette:msn.com> 2003-3-10
R:hornpipe
B:Cole's 1000 Fiddle Tunes
M:2/4
L:1/16
K:C
vfg|gece dBGB|cBcA .G2(EF)|GcBc Ad^cd|.B2.G2 .G2(fg)|
gece dBGB|cBcA .G2(cB)|ABcd ecdB|c2"4"e2c2:|
|:Bc|defd BGAB|cBcd .e2(de)|fgag fedc|.B2.d2 .d2(ef)|
gece dBGB|cBcA .G2(cB)|ABcd ecdB|c2"4"e2c2:|
